X:1
T:Billy In The Lowground
M:4/4
L:1/8
K:C
CA,|:"C"G,A,CD EGAB|cBcd cAGc|"Am"ABAG EGAB|cAGE DCCA,|
"C"G,A,CD EGAB|cBcd cAGB|"Am"ABAG EGAB|"G"cAGE "C"D C6/2:|
"C"eg2eg2 eg|afed cAG2|"F(Am)"ea2ga2 eg|agab ag e2|
"C"eg2eg2 eg|"(Am)"aged cAGB|"Am(F)"ABAG EGAB|"G"cAGE "C"D C6/2||
